; generated by PrusaSlicer 2.5.0+linux-x64-GTK3 on 2023-01-26 at 23:00:48 UTC


;
;
; 

; external perimeters extrusion width = 0.45mm
; perimeters extrusion width = 0.45mm
; infill extrusion width = 0.45mm
; solid infill extrusion width = 0.45mm
; top infill extrusion width = 0.40mm
; first layer extrusion width = 0.70mm

M73 P0 R95
M73 Q0 S95
M201 X1000 Y1000 Z200 E5000 ; sets maximum accelerations, mm/sec^2
M203 X200 Y200 Z12 E120 ; sets maximum feedrates, mm / sec
M204 P1250 R1250 T1250 ; sets acceleration (P, T) and retract acceleration (R), mm/sec^2
M205 X8.00 Y8.00 Z0.40 E4.50 ; sets the jerk limits, mm/sec
M205 S0 T0 ; sets the minimum extruding and travel feed rate, mm/sec
M107
;TYPE:Custom
M862.3 P "" ; printer model check
M862.1 P0.4 ; nozzle diameter check
M115 U3.11.0 ; tell printer latest fw version
G90 ; use absolute coordinates
M83 ; extruder relative mode
M104 S200 ; set extruder temp
M140 S60 ; set bed temp
M190 S60 ; wait for bed temp
M109 S200 ; wait for extruder temp
G28 W ; home all without mesh bed level
G80 ; mesh bed leveling

G1 Z0.2 F720
G1 Y-3 F1000 ; go outside print area
G92 E0
G1 X60 E9 F1000 ; intro line
G1 X100 E12.5 F1000 ; intro line

G92 E0
M221 S95

; Don't change E values below. Excessive value can damage the printer.

G21 ; set units to millimeters
G90 ; use absolute coordinates
M83 ; use relative distances for extrusion
; Filament gcode
M107
;LAYER_CHANGE
;Z:0.35
;HEIGHT:0.35
;BEFORE_LAYER_CHANGE
G92 E0.0
;0.35


G1 E-2 F2100
G1 Z.4 F7800
;AFTER_LAYER_CHANGE
;0.35
G1 X34.312 Y25.992
G1 Z.35
G1 E2 F2100
;TYPE:Skirt/Brim
;WIDTH:0.7
G1 F1800
G1 X36.143 Y24.44 E.23125
G1 X38.38 Y23.571 E.23125
G1 X39.851 Y23.42 E.14253
G1 X76.075 Y23.422 E3.49041
G1 X78.106 Y23.634 E.19677
G1 X79.029 Y23.858 E.0915
G1 X80.194 Y24.263 E.11889
G1 X82.018 Y25.215 E.19818
G1 X83.019 Y25.941 E.11927
G1 X83.725 Y26.566 E.09081
G1 X84.786 Y27.742 E.15264
G1 X85.663 Y29.041 E.15102
G1 X88.753 Y34.404 E.59637
G1 X89.299 Y35.572 E.12423
G1 X89.673 Y36.67 E.11179
G1 X89.98 Y38.104 E.14134
G1 X90.099 Y39.576 E.14222
G1 X90.101 Y56.67 E1.64714
G1 X89.704 Y59.037 E.23125
G1 X88.556 Y61.144 E.23125
G1 X86.782 Y62.761 E.23125
G1 X84.578 Y63.711 E.23125
G1 X82.851 Y63.92 E.16761
G1 X31.351 Y63.92 E4.96239
G1 X28.984 Y63.522 E.23125
G1 X26.877 Y62.374 E.23125
G1 X25.26 Y60.601 E.23125
G1 X24.31 Y58.397 E.23125
G1 X24.101 Y56.67 E.16761
G1 X24.101 Y52.67 E.38543
G1 X24.589 Y50.057 E.2561
G1 X33.089 Y28.057 E2.27258
G1 X34.282 Y26.044 E.22547
G1 X34.824 Y26.371 F7800
G1 F1800
G1 X34.856 Y26.318 E.00595
G1 X36.639 Y24.876 E.22099
G1 X39.851 Y24.045 E.31971
G1 X76.062 Y24.046 E3.48915
G1 X77.106 Y24.112 E.1008
G1 X78.267 Y24.307 E.1135
G1 X80.111 Y24.906 E.18678
G1 X81.908 Y25.892 E.19754
G1 X83.411 Y27.133 E.18782
G1 X84.19 Y27.997 E.11205
G1 X84.815 Y28.855 E.10227
G1 X88.053 Y34.429 E.62117
G1 X88.717 Y35.799 E.14671
G1 X89.15 Y37.132 E.13501
G1 X89.401 Y38.487 E.13279
G1 X89.474 Y39.59 E.10655
G1 X89.476 Y56.67 E1.64576
G1 X89.079 Y58.929 E.22099
G1 X87.936 Y60.917 E.22099
G1 X86.183 Y62.396 E.22099
G1 X84.031 Y63.189 E.22099
G1 X82.851 Y63.295 E.11414
G1 X31.351 Y63.295 E4.96239
G1 X29.092 Y62.898 E.22099
G1 X27.104 Y61.754 E.22099
G1 X25.625 Y60.002 E.22099
G1 X24.832 Y57.85 E.22099
G1 X24.726 Y56.67 E.11414
G1 X24.726 Y52.67 E.38543
G1 X25.171 Y50.282 E.23403
G1 X33.671 Y28.282 E2.27258
G1 X34.793 Y26.422 E.20926
G1 E-2 F2100
G1 Z.75 F7800
G1 X80.002 Y53.82
G1 Z.35
G1 E2 F2100
;TYPE:Perimeter
;WIDTH:0.7
G1 F1800
G1 X70.047 Y53.82 E.95922
G1 X70.372 Y53.478 E.04544
G1 X70.952 Y52.717 E.09224
G1 X71.428 Y51.886 E.09227
G1 X71.666 Y51.346 E.05688
G1 X71.897 Y50.637 E.07185
G1 X72.036 Y50.074 E.05585
G1 X72.156 Y49.186 E.08635
G1 X72.176 Y48.671 E.04971
G1 X72.165 Y46.424 E.21651
G1 X72.096 Y45.641 E.07571
G1 X72.011 Y45.158 E.04722
G1 X71.854 Y44.569 E.05875
G1 X71.662 Y43.986 E.05918
G1 X71.362 Y43.326 E.06989
G1 X70.961 Y42.633 E.07717
G1 X70.545 Y42.068 E.06752
G1 X69.896 Y41.365 E.09223
G1 X69.095 Y40.709 E.09976
G1 X68.015 Y40.068 E.12102
G1 X67.123 Y39.713 E.0925
G1 X66.363 Y39.51 E.07582
G1 X65.88 Y39.424 E.04722
G1 X64.852 Y39.345 E.09932
G1 X47.85 Y39.345 E1.63826
G1 X46.822 Y39.424 E.09935
G1 X46.323 Y39.514 E.04889
G1 X45.121 Y39.877 E.12097
G1 X44.257 Y40.295 E.09251
G1 X43.593 Y40.718 E.07583
G1 X43.204 Y41.017 E.04724
G1 X42.624 Y41.548 E.07579
G1 X42.293 Y41.909 E.04723
G1 X41.814 Y42.533 E.07579
G1 X41.551 Y42.947 E.04723
G1 X41.188 Y43.644 E.0758
G1 X41 Y44.097 E.04723
G1 X40.676 Y45.205 E.11118
G1 X40.571 Y45.897 E.06749
G1 X40.527 Y46.669 E.07444
G1 X40.527 Y48.671 E.19292
G1 X40.579 Y49.509 E.08098
G1 X40.778 Y50.549 E.10196
G1 X41.134 Y51.585 E.10557
G1 X41.445 Y52.213 E.06749
G1 X41.75 Y52.717 E.05681
G1 X42.207 Y53.334 E.07395
G1 X42.654 Y53.82 E.06369
G1 X34.201 Y53.82 E.81456
G1 X34.201 Y53.201 E.05965
G1 X41.805 Y33.52 E2.03309
G1 X75.339 Y33.523 E3.23127
G1 X75.98 Y33.538 E.06178
G1 X76.427 Y33.653 E.04449
G1 X76.712 Y33.863 E.0341
G1 X76.979 Y34.197 E.04116
G1 X78.668 Y37.124 E.32562
G1 X77.799 Y37.125 E.0838
G1 X77.307 Y37.223 E.04828
G1 X76.826 Y37.364 E.04834
G1 X76.295 Y37.643 E.05776
G1 X75.571 Y38.159 E.08572
G1 X75.102 Y38.698 E.06883
G1 X74.609 Y39.497 E.09041
G1 X74.404 Y40.128 E.064
G1 X74.305 Y40.621 E.04842
G1 X74.251 Y41.188 E.0549
G1 X74.306 Y41.719 E.05142
G1 X74.484 Y42.522 E.07931
G1 X74.684 Y42.993 E.04923
G1 X74.99 Y43.475 E.05503
G1 X75.374 Y43.988 E.06177
G1 X75.876 Y44.42 E.06376
G1 X75.375 Y44.852 E.06376
G1 X74.99 Y45.365 E.06178
G1 X74.585 Y46.049 E.07662
G1 X74.404 Y46.628 E.05845
G1 X74.305 Y47.121 E.04841
G1 X74.251 Y47.67 E.05317
G1 X74.306 Y48.219 E.05317
G1 X74.404 Y48.712 E.04846
G1 X74.552 Y49.212 E.0502
G1 X74.824 Y49.726 E.05602
G1 X75.103 Y50.143 E.04837
G1 X75.564 Y50.675 E.06784
G1 X75.878 Y50.918 E.03822
G1 X76.295 Y51.197 E.04838
G1 X76.771 Y51.453 E.05208
G1 X77.309 Y51.617 E.05416
G1 X77.802 Y51.715 E.04846
G1 X78.351 Y51.77 E.05318
G1 X78.901 Y51.715 E.05319
G1 X79.394 Y51.617 E.04845
G1 X80.002 Y51.365 E.06342
G1 X80.002 Y53.76 E.23078
G1 X80.627 Y54.445 F7800
G1 F1800
G1 X68.238 Y54.445 E1.19371
G1 X69.076 Y53.863 E.09829
G1 X69.884 Y53.087 E.10796
G1 X70.418 Y52.393 E.08437
G1 X70.856 Y51.634 E.0844
G1 X71.191 Y50.825 E.08441
G1 X71.419 Y49.979 E.0844
G1 X71.523 Y49.279 E.06819
G1 X71.551 Y48.671 E.05871
G1 X71.543 Y46.478 E.21126
G1 X71.474 Y45.695 E.07571
G1 X71.408 Y45.32 E.03673
M73 P0 R94
G1 X71.25 Y44.731 E.05875
G1 X71.087 Y44.229 E.05088
G1 X70.815 Y43.628 E.06352
G1 X70.449 Y42.991 E.07084
G1 X70.075 Y42.48 E.06096
G1 X69.484 Y41.835 E.08436
G1 X68.762 Y41.238 E.09022
G1 X67.765 Y40.641 E.11199
G1 X66.961 Y40.317 E.08356
G1 X65.826 Y40.047 E.11246
G1 X64.852 Y39.97 E.09408
G1 X47.85 Y39.97 E1.63825
G1 X46.877 Y40.047 E.0941
G1 X46.488 Y40.117 E.03802
G1 X45.375 Y40.448 E.11194
G1 X44.593 Y40.822 E.08356
G1 X43.626 Y41.477 E.11247
G1 X42.789 Y42.29 E.11243
G1 X42.105 Y43.235 E.11244
G1 X41.596 Y44.285 E.11244
G1 X41.292 Y45.313 E.10332
G1 X41.195 Y45.938 E.06093
G1 X41.152 Y46.669 E.0705
G1 X41.152 Y48.671 E.19292
G1 X41.196 Y49.41 E.0714
G1 X41.374 Y50.358 E.09292
G1 X41.7 Y51.321 E.09795
G1 X41.979 Y51.888 E.06093
G1 X42.429 Y52.601 E.08124
G1 X42.852 Y53.125 E.06482
G1 X43.482 Y53.74 E.08485
G1 X44.465 Y54.445 E.11663
G1 X33.576 Y54.445 E1.04928
G1 X33.576 Y53.085 E.13109
G1 X41.377 Y32.895 E2.08561
G1 X75.339 Y32.898 E3.27256
G1 X76.071 Y32.919 E.07055
G1 X76.535 Y33.026 E.04582
G1 X76.862 Y33.189 E.03519
G1 X77.173 Y33.44 E.03851
G1 X77.507 Y33.862 E.05189
G1 X79.967 Y38.124 E.47413
G1 X79.269 Y37.835 E.07281
G1 X78.774 Y37.737 E.04858
G1 X77.921 Y37.737 E.08221
G1 X77.055 Y37.946 E.0858
G1 X76.642 Y38.162 E.04493
G1 X75.986 Y38.626 E.07742
G1 X75.621 Y39.045 E.05353
G1 X75.176 Y39.759 E.08106
G1 X75.016 Y40.25 E.04977
G1 X74.879 Y41.062 E.07938
G1 X74.918 Y41.597 E.05165
G1 X75.047 Y42.22 E.06126
G1 X75.235 Y42.697 E.04944
G1 X75.51 Y43.128 E.04925
G1 X75.834 Y43.564 E.05234
G1 X76.225 Y43.898 E.04957
G1 X76.644 Y44.178 E.04855
G1 X77.16 Y44.42 E.05495
G1 X76.644 Y44.661 E.05495
G1 X76.225 Y44.941 E.04854
G1 X75.834 Y45.276 E.04957
G1 X75.51 Y45.712 E.05236
G1 X75.158 Y46.3 E.06603
G1 X74.966 Y47.006 E.07046
G1 X74.876 Y47.67 E.0646
G1 X74.966 Y48.334 E.06454
G1 X75.091 Y48.868 E.05289
G1 X75.343 Y49.379 E.05485
G1 X75.777 Y50 E.073
G1 X76.225 Y50.399 E.0578
G1 X77.013 Y50.877 E.08878
G1 X77.431 Y51.004 E.04212
G1 X78.307 Y51.144 E.08549
G1 X78.778 Y51.103 E.04561
G1 X79.272 Y51.004 E.04845
G1 X80.06 Y50.678 E.08222
G1 X80.477 Y50.399 E.04838
G1 X80.627 Y50.249 E.02034
G1 X80.627 Y54.385 E.39852
G1 X81.251 Y55.07 F7800
G1 F1800
G1 X66.374 Y55.07 E1.43353
G1 X66.101 Y55.091 E.02641
;WIDTH:0.657136
G1 X65.828 Y55.113 E.0246
;WIDTH:0.614272
G1 X65.554 Y55.134 E.02279
;WIDTH:0.571409
G1 X64.852 Y55.145 E.05373
;WIDTH:0.550278
G1 X47.85 Y55.145 E1.24574
;WIDTH:0.551099
G1 X47.775 Y55.144 E.00553
;WIDTH:0.572114
G1 X47.155 Y55.134 E.04756
;WIDTH:0.61095
G1 X46.786 Y55.115 E.03053
;WIDTH:0.649786
G1 X46.417 Y55.095 E.03274
;WIDTH:0.688622
G1 X46.048 Y55.076 E.03495
;WIDTH:0.7
G1 X32.951 Y55.07 E1.26197
G1 X32.951 Y52.968 E.20253
G1 X40.948 Y32.27 E2.13812
G1 X75.97 Y32.273 E3.37464
G1 X76.518 Y32.354 E.05336
G1 X76.986 Y32.528 E.0481
G1 X77.408 Y32.795 E.04818
G1 X77.778 Y33.157 E.04979
G1 X78.035 Y33.527 E.04343
G1 X80.806 Y38.328 E.53414
G1 X81.054 Y38.802 E.05158
G1 X81.171 Y39.143 E.03469
G1 X81.251 Y39.794 E.06322
G1 X81.251 Y40.354 E.054
G1 X81.274 Y40.438 E.00836
;WIDTH:0.654682
G1 X81.297 Y40.522 E.00775
;WIDTH:0.609364
G1 X81.319 Y40.606 E.00715
;WIDTH:0.564046
G1 X81.342 Y40.689 E.00654
;WIDTH:0.518728
G1 X81.365 Y40.773 E.00593
;WIDTH:0.47341
G1 X81.387 Y40.857 E.00533
;WIDTH:0.449957
G1 X81.376 Y41.483 E.03618
;WIDTH:0.49163
G1 X81.356 Y41.566 E.00554
;WIDTH:0.533304
G1 X81.335 Y41.65 E.0061
;WIDTH:0.574978
G1 X81.314 Y41.734 E.00665
;WIDTH:0.616652
G1 X81.293 Y41.818 E.00721
;WIDTH:0.658326
G1 X81.272 Y41.901 E.00776
;WIDTH:0.7
G1 X81.251 Y41.985 E.00832
G1 X81.251 Y46.854 E.46914
G1 X81.274 Y46.938 E.00836
;WIDTH:0.654684
G1 X81.297 Y47.021 E.00776
;WIDTH:0.609368
G1 X81.319 Y47.105 E.00715
;WIDTH:0.564052
G1 X81.342 Y47.189 E.00654
;WIDTH:0.518736
G1 X81.365 Y47.273 E.00594
;WIDTH:0.47342
G1 X81.387 Y47.357 E.00533
;WIDTH:0.450065
G1 X81.376 Y47.983 E.03621
;WIDTH:0.500052
G1 X81.351 Y48.083 E.00679
;WIDTH:0.550039
G1 X81.326 Y48.184 E.00759
;WIDTH:0.600026
G1 X81.301 Y48.285 E.00839
;WIDTH:0.650013
G1 X81.276 Y48.385 E.00919
;WIDTH:0.7
G1 X81.251 Y48.486 E.00999
G1 X81.251 Y55.01 E.62866
G1 E-2 F2100
G1 Z.75 F7800
G1 X66.319 Y54.538
G1 Z.35
G1 E2 F2100
G1 F1800
G1 X66.259 Y54.547 E.00583
;WIDTH:0.664836
G1 X65.997 Y54.586 E.0241
;WIDTH:0.629673
G1 X65.735 Y54.624 E.02267
;WIDTH:0.59451
G1 X64.95 Y54.667 E.06296
;WIDTH:0.552126
G1 X64.852 Y54.67 E.00716
;WIDTH:0.550278
G1 X47.85 Y54.67 E1.24574
;WIDTH:0.572114
G1 X47.198 Y54.641 E.05006
;WIDTH:0.606522
G1 X46.807 Y54.589 E.03226
;WIDTH:0.640931
G1 X46.417 Y54.538 E.03435
;WIDTH:0.688622
G1 X46.151 Y54.491 E.02557
;WIDTH:0.7
G1 X45.409 Y54.227 E.07583
G1 X44.721 Y53.873 E.07461
G1 X43.859 Y53.242 E.10295
G1 X43.301 Y52.691 E.07553
G1 X42.922 Y52.218 E.05845
G1 X42.513 Y51.564 E.07426
G1 X42.266 Y51.057 E.05437
G1 X41.969 Y50.168 E.09034
G1 X41.813 Y49.311 E.08389
G1 X41.776 Y48.671 E.06183
G1 X41.776 Y46.669 E.19292
G1 X41.818 Y45.979 E.06656
G1 X41.907 Y45.422 E.05437
G1 X42.192 Y44.473 E.09545
G1 X42.66 Y43.524 E.10196
G1 X43.285 Y42.67 E.10196
G1 X44.049 Y41.938 E.10196
G1 X44.928 Y41.349 E.102
G1 X45.629 Y41.019 E.07461
G1 X46.654 Y40.719 E.10291
G1 X47.85 Y40.595 E.11591
G1 X64.852 Y40.595 E1.63824
G1 X65.771 Y40.669 E.08883
G1 X66.799 Y40.92 E.10199
G1 X67.516 Y41.214 E.07461
G1 X68.43 Y41.767 E.10296
G1 X69.072 Y42.304 E.08067
G1 X69.606 Y42.892 E.0765
G1 X69.937 Y43.349 E.0544
G1 X70.269 Y43.931 E.06451
G1 X70.511 Y44.472 E.05715
G1 X70.724 Y45.184 E.07158
G1 X70.851 Y45.75 E.05592
G1 X70.92 Y46.533 E.07571
G1 X70.926 Y48.671 E.206
G1 X70.901 Y49.218 E.05276
G1 X70.801 Y49.884 E.06495
G1 X70.591 Y50.65 E.07654
G1 X70.284 Y51.383 E.07654
G1 X69.883 Y52.069 E.07653
G1 X69.397 Y52.696 E.0765
G1 X68.653 Y53.402 E.09879
G1 X67.975 Y53.877 E.07975
G1 X67.269 Y54.24 E.07654
G1 X66.521 Y54.508 E.07653
G1 X66.378 Y54.529 E.01393
G1 X66.254 Y53.93 F7800
G1 F1800
G1 X65.623 Y54.063 E.06211
G1 X64.852 Y54.12 E.07445
G1 X47.85 Y54.12 E1.63827
G1 X47.295 Y54.088 E.05358
G1 X46.52 Y53.952 E.0758
G1 X45.623 Y53.64 E.09152
G1 X45.02 Y53.324 E.06567
G1 X44.236 Y52.744 E.09392
G1 X43.751 Y52.257 E.06622
G1 X43.415 Y51.834 E.05208
G1 X43.047 Y51.24 E.06728
G1 X42.789 Y50.682 E.05923
G1 X42.564 Y49.977 E.0713
G1 X42.43 Y49.212 E.07485
G1 X42.402 Y48.712 E.04832
G1 X42.401 Y46.669 E.19686
G1 X42.442 Y46.02 E.06262
G1 X42.526 Y45.511 E.04966
G1 X42.788 Y44.661 E.08574
G1 X43.214 Y43.812 E.09149
G1 X43.781 Y43.051 E.09149
G1 X44.471 Y42.399 E.09149
G1 X45.264 Y41.876 E.09152
G1 X45.883 Y41.59 E.06567
G1 X46.819 Y41.322 E.09389
G1 X47.85 Y41.22 E.09983
G1 X64.852 Y41.22 E1.63824
G1 X65.717 Y41.292 E.08358
G1 X66.638 Y41.524 E.09152
G1 X67.266 Y41.787 E.06567
G1 X68.097 Y42.296 E.09393
G1 X68.66 Y42.774 E.07113
G1 X69.136 Y43.304 E.06863
G1 X69.452 Y43.749 E.05254
G1 X69.722 Y44.233 E.05349
G1 X69.936 Y44.715 E.05078
G1 X70.121 Y45.345 E.06329
G1 X70.229 Y45.804 E.04544
G1 X70.297 Y46.587 E.07571
G1 X70.301 Y48.671 E.20075
G1 X70.273 Y49.206 E.05166
G1 X70.183 Y49.789 E.05684
G1 X69.992 Y50.475 E.06867
G1 X69.712 Y51.131 E.06867
G1 X69.349 Y51.744 E.06867
G1 X68.91 Y52.305 E.06863
G1 X68.231 Y52.941 E.08962
G1 X67.628 Y53.357 E.07058
G1 X66.993 Y53.68 E.06867
G1 X66.313 Y53.918 E.06944
G1 X65.916 Y53.366 F7800
;TYPE:External perimeter
G1 F1800
G1 X65.501 Y53.45 E.04082
G1 X64.852 Y53.495 E.06266
G1 X47.85 Y53.495 E1.63827
G1 X47.404 Y53.473 E.04309
G1 X46.629 Y53.336 E.0758
G1 X45.837 Y53.053 E.08106
G1 X45.318 Y52.775 E.05673
G1 X44.614 Y52.246 E.0849
G1 X44.201 Y51.823 E.05691
G1 X43.887 Y51.42 E.04921
G1 X43.582 Y50.916 E.05681
G1 X43.384 Y50.492 E.04506
G1 X43.159 Y49.787 E.0713
G1 X43.047 Y49.113 E.06583
G1 X43.026 Y48.671 E.04269
G1 X43.026 Y46.669 E.19292
G1 X43.065 Y46.061 E.05869
G1 X43.148 Y45.599 E.04518
G1 X43.384 Y44.849 E.07579
G1 X43.768 Y44.101 E.08102
G1 X44.276 Y43.431 E.08102
G1 X44.893 Y42.859 E.08102
G1 X45.6 Y42.403 E.08106
G1 X46.136 Y42.161 E.05673
G1 X46.985 Y41.924 E.08486
G1 X47.85 Y41.845 E.08375
G1 X64.852 Y41.845 E1.63823
G1 X65.662 Y41.915 E.07834
G1 X66.476 Y42.128 E.08105
G1 X67.017 Y42.36 E.05673
G1 X67.765 Y42.825 E.08491
G1 X68.248 Y43.244 E.0616
G1 X68.666 Y43.716 E.06077
G1 X68.932 Y44.097 E.04472
G1 X69.193 Y44.569 E.05199
G1 X69.393 Y45.045 E.04982
G1 X69.597 Y45.805 E.07581
G1 X69.675 Y46.642 E.08094
G1 X69.676 Y48.671 E.1955
G1 X69.655 Y49.111 E.04248
G1 X69.566 Y49.694 E.05684
G1 X69.392 Y50.301 E.06081
G1 X69.14 Y50.879 E.06081
G1 X68.815 Y51.42 E.06081
G1 X68.422 Y51.914 E.06077
G1 X67.809 Y52.48 E.08045
G1 X67.281 Y52.838 E.06142
G1 X66.716 Y53.119 E.06081
G1 X66.12 Y53.325 E.0608
G1 X65.975 Y53.354 E.01421
G1 X65.802 Y53.749 F7800
G1 E-2 F2100
G1 Z.75 F7800
G1 X79.575 Y44.42
G1 Z.35
G1 E2 F2100
;TYPE:Perimeter
;WIDTH:0.719424
G1 F1800
G1 X80.065 Y44.186 E.05396
G1 X80.483 Y43.906 E.04997
G1 X80.617 Y43.772 E.01881
G1 X80.617 Y45.067 E.12863
G1 X80.483 Y44.933 E.01887
G1 X80.065 Y44.654 E.04992
G1 X79.629 Y44.446 E.048
G1 E-2 F2100
G1 Z.75 F7800
G1 X76.429 Y49.747
G1 Z.35
G1 E2 F2100
;WIDTH:0.7
G1 F1800
G1 X76.216 Y49.55 E.02795
G1 X75.863 Y49.031 E.06049
G1 X75.657 Y48.584 E.0474
G1 X75.531 Y47.975 E.05995
G1 X75.501 Y47.67 E.02955
G1 X75.578 Y47.128 E.05278
G1 X75.73 Y46.551 E.05749
G1 X76.03 Y46.059 E.05545
G1 X76.293 Y45.699 E.04294
G1 X76.573 Y45.46 E.03549
G1 X76.991 Y45.181 E.04842
G1 X77.237 Y45.047 E.027
;WIDTH:0.742597
G1 X78.039 Y44.829 E.0856
;WIDTH:0.787613
G1 X78.349 Y44.776 E.03452
G1 X78.748 Y44.862 E.04487
;WIDTH:0.743806
G1 X79.147 Y44.948 E.04211
;WIDTH:0.7
G1 X79.465 Y45.047 E.03209
G1 X80.13 Y45.46 E.07542
G1 X80.56 Y45.891 E.05868
G1 X80.839 Y46.308 E.04838
G1 X81.073 Y46.871 E.05873
